icons/facebook-circle-line.svg

<svg xmlns="http://www.w3.org/2000/svg" width="24" height="24" fill="none"><g clip-path="url(#a)"><g><path fill="#121212" d="M13 19.938C15.0173 19.6813 16.8611 18.6661 18.1568 17.0988C19.4525 15.5314 20.1027 13.5295 19.9754 11.5C19.848 9.47041 18.9527 7.56549 17.4713 6.17238C15.9898 4.77927 14.0336 4.00252 12 4C9.96396 3.99848 8.00395 4.77334 6.51934 6.16668C5.03473 7.56002 4.13724 9.46699 4.00974 11.499C3.88225 13.5311 4.53434 15.5353 5.83314 17.1033C7.13195 18.6712 8.97974 19.685 11 19.938V14H9V12H11V10.346C11 9.009 11.14 8.524 11.4 8.035C11.6561 7.55119 12.052 7.15569 12.536 6.9C12.918 6.695 13.393 6.572 14.223 6.519C14.552 6.498 14.978 6.524 15.501 6.599V8.499H15C14.083 8.499 13.704 8.542 13.478 8.663C13.3431 8.73236 13.2334 8.84215 13.164 8.977C13.044 9.203 13 9.427 13 10.345V12H15.5L15 14H13V19.938ZM12 22C6.477 22 2 17.523 2 12C2 6.477 6.477 2 12 2C17.523 2 22 6.477 22 12C22 17.523 17.523 22 12 22Z"/></g></g><defs><clipPath id="a"><rect width="24" height="24" fill="white"/></clipPath></defs></svg>

<svg width="24" height="24" fill="none" xmlns="http://www.w3.org/2000/svg"><g clip-path="url(#a)"><path d="M13 19.938A8.001 8.001 0 0 0 12 4a8 8 0 0 0-1 15.938V14H9v-2h2v-1.654c0-1.337.14-1.822.4-2.311A2.72 2.72 0 0 1 12.536 6.9c.382-.205.857-.328 1.687-.381.329-.021.755.005 1.278.08v1.9H15c-.917 0-1.296.043-1.522.164a.727.727 0 0 0-.314.314c-.12.226-.164.45-.164 1.368V12h2.5l-.5 2h-2v5.938ZM12 22C6.477 22 2 17.523 2 12S6.477 2 12 2s10 4.477 10 10-4.477 10-10 10Z" /></g><defs><clipPath id="a"><path fill="#fff" d="M0 0h24v24H0z"/></clipPath></defs></svg>
